www/assets/icons/polyline.svg

<svg xmlns="http://www.w3.org/2000/svg" width="24" height="24" viewBox="0 0 24 24" fill='currentColor'><path d="M15 16v1.26l-6-3v-3.17L11.7 8H16V2h-6v4.9L7.3 10H3v6h5l7 3.5V22h6v-6z"/></svg>

<svg width="24" height="24" viewBox="0 0 24 24" xmlns="http://www.w3.org/2000/svg" fill='currentColor'><path d="M15 16V17.26L9 14.26V11.09L11.7 8H16V2H10V6.9L7.3 10H3V16H8L15 19.5V22H21V16H15Z"/></svg>
